X: 1
T: The Kinnegad Slashers
R: jig
M: 6/8
L: 1/8
K: Dmaj
|:A | ded dAF | ABA ABc | ded dAF | E2g gfe |
ded dAF | ABA a2g | fef dBA | Bdc d2 :|
|:A | dfa afd | cde ecA | dfa afd | fa^g a2f |
dfa afd | cde eag | fef dBA | Bdc d2 :|
|:A | dAF dAF | dAF ABc | dAF dAF | E2g gfe |
dAF dAF | dAF a2g | fef dBA | Bdc d2 :|]


Tune 1258	Setting 14569

